X:1
T:Lord, we beseech thee - Batten
T:James Gibb editions
T:#
%%score [ 1 2 3 4 ]
L:1/8
Q:1/4=80
M:2/2
K:D
V:1 treble nm="Soprano" snm="S"
V:2 treble nm="Alto" snm="A"
V:3 treble-8 nm="Tenor" snm="T"
V:4 bass nm="Bass" snm="B"
V:1
"^Let my complaint come before thee"!p!"^Ps. 119:169-172,175""^Adrian Batten\n(c. 1590-1637)" A4 A2 A2 | %1
w: Let my com-|
 B4 B2 B2 | A2 A2 d4 | c4 z2 c2- | c2 c2 B2 B2- |[M:2/2] B (^A/^G/ A2) B2 B2 | =A2 F2 E2 E2 | %7
w: plaint come be-|fore thee O|Lord, Give|* me un- der\-|* stand\- * * ing ac-|cord- ing to thy|
 F2!mp! FF d3 c | B3 A ^G2 GG | A2 A3 A ^G2 | A2 A2 B3 B | B2 A2 B2 A2 | ^G2 (A4 G2) | %13
w: word, Let my sup- plic-|a- ti- on come be-|fore thee, be- fore|thee, de- liv- er|me ac- cord- ing|to thy *|
 A4 z2!mf!"^Can." A2 | B2 A2 e2 d2- | d (dcB) ^A2 =A2 | B3 c d4 | c2 B2 A4 | ^G2!mf!"^Dec." G4 A2 | %19
w: word. My|lips shall speak of|* thy * * praise when|thou hast taught|me thy sta-|tutes. Yea, my|
 B2 B2 ^A2 d2 | c4 B4 | z2 d2 c2 BB | e3 d c2 B2 | B2 ^A2 B2!f!"^Full" d2- | d2 cB (^A2 B2) | %25
w: tongue shall sing of|thy word,|for all thy com-|mand\- * ments are|right- e- ous. O|* let my soul *|
 c4 z2 B2- | B2 AG (F3 G) | A2 A3 B c2- | c2 (f2 e4) | d2!mf! dd c2 B2 | ^A2 (B4 A2) | %31
w: live, O|* let my soul *|live and it shall|* praise *|thee, and thy judge- ments|shall help *|
 B2!mp! =AA B2 BB | A8 | A2!p! (F2 G2 F2 | %34
w: me, and thy judge- ments shall|help|me. A\- * *|
"^rit."[Q:1/4=79]!<(! G[Q:1/4=79]A[Q:1/4=78]B[Q:1/4=77]=c[Q:1/4=76] d3!<)![Q:1/4=75] c | %35
w: |
[Q:1/4=74]!>(! B[Q:1/4=73]G[Q:1/4=72] B4[Q:1/4=70] A!>)![Q:1/4=70]G) |[Q:1/4=70] A8 |] %37
w: |men.|
V:2
!p! D4 D2 D2 | D4 D2 D2 | D2 E2 (D2 B,2) | E4 z2 E2- | E2 E2 G2 G2 |[M:2/2] (F3 E) ^D2 F2 | %6
w: Let my com-|plaint come be-|fore thee O *|Lord, Give|* me un- der-|stand\- * ing ac-|
 E2 =D2 D2 C2 | D2!mp! DD F3 E | D2 D2 E4- | E2 DC B,4 | C (DEF) G3 G | G2 F2 G2 D2 | E6 E2 | %13
w: cord- ing to thy|word, Let my sup- plic-|a- ti- on|* come be- fore|thee, de\- * * liv- er|me ac- cord- ing|to thy|
 C4 z2!mf!"^Can." D2 | D2 F2 G2 F2- | F2 E2 F2 F2 | G2 G2 (F3 G) | A2 E4 ^D2 | %18
w: word. My|lips shall speak of|* thy praise when|thou hast taught *|me thy sta-|
 E2!mf!"^Dec." E4 E2 | D2 F2 F2 F2- | F (E C2) ^D2 F2 | F2 FF (G3 F) | E2 G2 F4- | F2 F2 ^D2 z2 | %24
w: tutes. Yea, my|tongue shall sing of|* thy * word, for|all thy com- mand\- *|ments are right\-|* e- ous.|
!f!"^Full" F6 ED | (C3 E) D4 | B,6 A,G, | F,2 F3 G A2 | E2 (A3 G E2) | F2!mf! FF EF (GE) | %30
w: O let my|soul * live,|O let my|soul live and it|shall praise * *|thee, and thy judge- ments shall *|
 F2 F3 E (FE) | D2 z2!mp! B,B, E2- | ED D3 (C/B,/ C2) | D4!p! (D3 =C |"^rit."!<(! B,=C!<)! D2) D4 | %35
w: help me, shall help *|me, and thy judge\-|* ments shall help * *|me. A\- *|* * * men.|
!>(! (D2 G4 F!>)!E) | F8 |] %37
w: A\- * * *|men.|
V:3
!p! F4 F2 F2 | G4 G2 G2 | F^G (A4 G2) | A4 z2 A2- | A2 A2 B2 (ed) | %5
w: Let my com-|plaint come be-|fore thee O *|Lord, Give|* me un- der\- *|
[M:2/2][K:treble-8] (cB c2) B2 F2 | A2 A2 A2 A2 | A6!mp! AA | B2 B2 B2 B2 | A2 A2 B2 B2 | %10
w: stand\- * * ing ac-|cord- ing to thy|word, Let my|sup- plic- a- ti-|on come be- fore|
 A2 c2 d3 d | d4 B2 d2- | d2 c2 B2 B2 | A4 z2!mf!"^Can." F2 | G2 F2 B2 A2 | B4 c2 d2 | %16
w: thee, de- liv- er|me ac- cord\-|* ing to thy|word. My|lips shall speak of|thy praise when|
 d2 e2 (f2 d2) | e2 B2 (c2 A2) | B2!mf!"^Dec." B4 E2 | F2 d2 c2 B2- | B2 ^A2 B2 =d2 | %21
w: thou hast taught *|me thy sta\- *|tutes. Yea, my|tongue shall sing of|* thy word, for|
 c2 BB (e3 d) | c2 B2 (^A2 d2) | c4 B4 |!f!"^Full" d6 cB | (^A^G A2) B4 | d6 cB | A4 A3 B | %28
w: all thy com- mand\- *|ments are right\- *|e- ous.|O let my|soul * * live,|O let my|soul live and|
 c2 d4 c2 | d4!mf! cc e2- | ee d2 (c2 F2) | F4!mp! DD G2- | GF F2 E4 | F!p!!<(! (G A2 B2 A2!<)! | %34
w: it shall praise|thee, and thy judge\-|* ments shall help *|me, and thy judge\-|* ments shall help|me. A\- * * *|
"^rit." d=c B2) A4 |!>(! (B3 A G2 A!>)!B) | A8 |] %37
w: * * * men.|A\- * * * *|men.|
V:4
!p! D,4 D,2 D,2 | G,4 G,,2 G,,2 | D,2 C,2 B,,4 | A,,4 z2 A,2- | A,2 A,2 G,2 E,2 | %5
w: Let my com-|plaint come be-|fore thee O|Lord, Give|* me un- der-|
[M:2/2] F,4 B,,2 B,,2 | C,2 D,2 A,,2 A,,2 | D,6!mp! D,D, | G,3 F, E,3 D, | C,2 B,,A,, E,4 | %10
w: stand- ing ac-|cord- ing to thy|word, Let my|sup- plic- a- ti-|on come be- fore|
 A,,2 A,2 G,3 G, | G,2 D,2 G,2 F,2 | E,4 E,4 | A,,4 z2!mf!"^Can." D,2 | B,,2 D,2 E,2 F,2 | %15
w: thee, de- liv- er|me ac- cord- ing|to thy|word. My|lips shall speak of|
 G,4 F,2 D,2 | G,2 E,2 B,4 | A,2 G,2 F,4 | E,2!mf!"^Dec." E,3 (D, C,2) | B,,2 B,,2 F,2 (D,E,) | %20
w: thy praise when|thou hast taught|me thy sta-|tutes. Yea, my *|tongue shall sing of *|
 F,4 B,,2 B,2 | ^A,2 B,B, E,4 | E,3 E, F,4- | F,2 F,2 B,,2!f!"^Full" B,2- | B,2 A,G, F,4 | %25
w: thy word, for|all thy com- mand-|ments are right\-|* e- ous. O|* let my soul|
 F,4 =G,4- | G,2 F,E, D,4 | D,3 E, F,3 G, | A,8 | D,2!mf! D,D, A,A, G,2 | F,8 | %31
w: live, O|* let my soul|live and it shall|praise|thee, and thy judge- ments shall|help|
 B,,2!mp! F,,F,, G,,G,, G,,2 | A,,8 | D,2!p!!<(! (D,=C,B,,C, D,2)!<)! |"^rit." G,,2 (G,4 F,2 | %35
w: me, and thy judge- ments shall|help|me. A\- * * * *|men. A\- *|
!>(! G,2 G,,2 D,4)!>)! | D,8 |] %37
w: |men.|

